Numix-GalliumOS/32/categories/gnome-settings.svg

<?xml version="1.0" encoding="UTF-8" standalone="no"?>
<svg
   xmlns:dc="http://purl.org/dc/elements/1.1/"
   xmlns:cc="http://creativecommons.org/ns#"
   xmlns:rdf="http://www.w3.org/1999/02/22-rdf-syntax-ns#"
   xmlns:svg="http://www.w3.org/2000/svg"
   xmlns="http://www.w3.org/2000/svg"
   xmlns:sodipodi="http://sodipodi.sourceforge.net/DTD/sodipodi-0.dtd"
   xmlns:inkscape="http://www.inkscape.org/namespaces/inkscape"
   width="32"
   height="32"
   viewBox="0 0 32 32"
   id="svg2"
   version="1.1"
   inkscape:version="0.91 r"
   sodipodi:docname="gtk-preferences.svg">
  <metadata
     id="metadata26">
    <rdf:RDF>
      <cc:Work
         rdf:about="">
        <dc:format>image/svg+xml</dc:format>
        <dc:type
           rdf:resource="http://purl.org/dc/dcmitype/StillImage" />
        <dc:title />
      </cc:Work>
    </rdf:RDF>
  </metadata>
  <defs
     id="defs24" />
  <sodipodi:namedview
     pagecolor="#ffffff"
     bordercolor="#666666"
     borderopacity="1"
     objecttolerance="10"
     gridtolerance="10"
     guidetolerance="10"
     inkscape:pageopacity="0"
     inkscape:pageshadow="2"
     inkscape:window-width="1680"
     inkscape:window-height="1026"
     id="namedview22"
     showgrid="true"
     inkscape:zoom="3.6875"
     inkscape:cx="36.133431"
     inkscape:cy="16.492303"
     inkscape:window-x="0"
     inkscape:window-y="24"
     inkscape:window-maximized="1"
     inkscape:current-layer="svg2">
    <inkscape:grid
       type="xygrid"
       id="grid4154" />
  </sodipodi:namedview>
  <path
     style="fill:#ec86ab"
     inkscape:connector-curvature="0"
     id="path6"
     d="M 5,4 5,20 6,20 6,4 Z" />
  <path
     style="fill:#ec86ab"
     inkscape:connector-curvature="0"
     id="path8"
     d="m 7.5,21 c 0,1.102273 -0.897728,2 -2.0037876,2 C 4.3939394,23 3.5,22.102273 3.5,21 3.5,19.893939 4.3939394,19 5.4962124,19 6.602272,19 7.5,19.893939 7.5,21 Z" />
  <path
     style="fill:#ec86ab"
     inkscape:connector-curvature="0"
     id="path10"
     d="M 13,28 13,8 12,8 12,28 Z" />
  <path
     style="fill:#ec86ab"
     inkscape:connector-curvature="0"
     id="path12"
     d="M 10.5,7.0037876 C 10.5,5.897727 11.397727,5 12.496211,5 13.602272,5 14.5,5.897727 14.5,7.0037876 14.5,8.102272 13.602272,9 12.496211,9 11.397727,9 10.5,8.102272 10.5,7.0037876 Z" />
  <path
     style="fill:#ec86ab"
     inkscape:connector-curvature="0"
     id="path14"
     d="m 19,4 0,15 1,0 0,-15 z" />
  <path
     style="fill:#ec86ab"
     inkscape:connector-curvature="0"
     id="path16"
     d="m 21.5,20 c 0,1.102273 -0.897727,2 -2,2 -1.102273,0 -2,-0.897727 -2,-2 0,-1.102273 0.897727,-2 2,-2 1.102273,0 2,0.897727 2,2 z" />
  <path
     style="fill:#ec86ab"
     inkscape:connector-curvature="0"
     id="path18"
     d="m 27,28 0,-11 -1,0 0,11 z" />
  <path
     style="fill:#ec86ab"
     inkscape:connector-curvature="0"
     id="path20"
     d="M 24.5,15.998104 C 24.5,14.890994 25.397727,14 26.503788,14 27.602273,14 28.5,14.890994 28.5,15.998104 28.5,17.105213 27.602273,18 26.503788,18 25.397727,18 24.5,17.105213 24.5,15.998104 Z" />
</svg>

<svg xmlns="http://www.w3.org/2000/svg" viewBox="0 0 32 32">
 <path d="m 5 4 0 16 1 0 0 -16" style="fill:#ec86ab"/>
 <path d="m 7.5 21 c 0 1.102 -0.898 2 -2 2 c -1.102 0 -1.996 -0.898 -1.996 -2 0 -1.106 0.894 -2 1.996 -2 1.106 0 2 0.894 2 2" style="fill:#ec86ab"/>
 <path d="m 13 28 0 -20 -1 0 0 20" style="fill:#ec86ab"/>
 <path d="m 10.5 7 c 0 -1.106 0.898 -2 1.996 -2 1.106 0 2 0.898 2 2 0 1.098 -0.898 1.996 -2 1.996 -1.098 0 -1.996 -0.898 -1.996 -1.996" style="fill:#ec86ab"/>
 <path d="m 19 4 0 15 1 0 0 -15 z" style="fill:#ec86ab"/>
 <path d="m 21.5 20 c 0 1.102 -0.898 2 -2 2 -1.102 0 -2 -0.898 -2 -2 0 -1.102 0.898 -2 2 -2 1.102 0 2 0.898 2 2 z" style="fill:#ec86ab"/>
 <path d="m 27 28 0 -11 -1 0 0 11 z" style="fill:#ec86ab"/>
 <path d="m 24.5 15.998 c 0 -1.107 0.898 -1.998 2 -1.998 1.098 0 1.996 0.891 1.996 1.998 0 1.107 -0.898 2 -1.996 2 -1.106 0 -2 -0.895 -2 -2" style="fill:#ec86ab"/>
</svg>
